icons/1_Primary/Primobox.svg

<svg width="1024" height="1024" fill="none" xmlns="http://www.w3.org/2000/svg"><g clip-path="url(#a)"><path d="M512 1024c282.77 0 512-229.23 512-512S794.77 0 512 0 0 229.23 0 512s229.23 512 512 512Z" fill="#728DBE"/><path d="M231.88 552.34v-84.73h29.52v13.84a34.102 34.102 0 0 1 27.86-16 19.604 19.604 0 0 1 3.65.33v28.52a43.592 43.592 0 0 0-10-1.33c-10 0-18.18 4.17-21.52 10.17v49.21l-29.51-.01Zm71.58-84.72H333v84.73h-29.53l-.01-84.73Zm77.05 84.72v-52.87a15.083 15.083 0 0 1 13.49-7.84c7.17 0 10.67 4.51 10.67 13.68v47h29.52v-52.84a14.647 14.647 0 0 1 13.34-7.84c7.17 0 10.67 4.51 10.67 13.68v47h29.52v-52.84c0-22.18-12.34-34-30.19-34a34.608 34.608 0 0 0-27.68 14 27.077 27.077 0 0 0-23.35-14 30.644 30.644 0 0 0-26 12.17v-10H351v84.73l29.51-.03Zm200-74.05a51.94 51.94 0 0 0-68.38 0 44.121 44.121 0 0 0 0 63.55 52.45 52.45 0 0 0 68.38 0 44.121 44.121 0 0 0 0-63.55Zm-34.19 51a18.414 18.414 0 0 1-18.7-18.11v-1.23a18.683 18.683 0 0 1 4.994-13.406 18.683 18.683 0 0 1 20.211-4.785A18.683 18.683 0 0 1 564.98 508.6v1.35a18.41 18.41 0 0 1-17.45 19.32h-1.23m242-51a51.94 51.94 0 0 0-68.38 0 44.121 44.121 0 0 0 0 63.55 52.45 52.45 0 0 0 68.38 0 44.121 44.121 0 0 0 0-63.55Zm-34.19 51a18.41 18.41 0 0 1-18.7-18.11v-1.23a18.683 18.683 0 0 1 4.994-13.407 18.696 18.696 0 0 1 20.211-4.784 18.683 18.683 0 0 1 12.155 16.841v1.35a18.41 18.41 0 0 1-17.45 19.32h-1.23m-543.81-88.43a48.138 48.138 0 0 0-34.19-12.46H128v124.28h29.52V453l18.57.09a18.238 18.238 0 0 1 13.032 5.029 18.254 18.254 0 0 1 5.658 12.771v1.22a18.43 18.43 0 0 1-17.84 19h-6.74v24.74h5.89a48.263 48.263 0 0 0 34.19-12.57 42.858 42.858 0 0 0 13.51-31.23 42.849 42.849 0 0 0-13.51-31.23Zm489 68a40.69 40.69 0 0 0-13.51-31.15 48.26 48.26 0 0 0-34.2-12.67h-5.89v24.74h5.89a18.423 18.423 0 0 1 13.14 5.245A18.435 18.435 0 0 1 670.26 508v.84a18.251 18.251 0 0 1-17.46 19h-1.22l-18.57.09v-99.6h-29.53v124.38h48.09a48.219 48.219 0 0 0 34.19-12.57 41.007 41.007 0 0 0 13.51-31.31m166.37-22.38 8.56 12.26 21.8-31.24h-32.85l-5.37 7.71 7.86 11.27Zm0 47.09-7.87 11.28 5.36 7.71H896l-21.8-31.23-8.56 12.24Zm-15.74-47.1-13.25-19H803.8L833.47 510l-29.67 42.5h32.85l13.23-19 16.44-23.5-16.42-23.56ZM333 443.32a14.759 14.759 0 0 0-17.64-14.476 14.756 14.756 0 0 0-11.596 11.596 14.756 14.756 0 0 0 14.476 17.64A14.76 14.76 0 0 0 333 443.32Z" fill="#fff"/></g><defs><clipPath id="a"><path fill="#fff" d="M0 0h1024v1024H0z"/></clipPath></defs></svg>

<svg width="1024" height="1024" viewBox="0 0 1024 1024" fill="none" xmlns="http://www.w3.org/2000/svg">
<g clip-path="url(#clip0_2_3207)">
<path d="M512 1024C794.77 1024 1024 794.77 1024 512C1024 229.23 794.77 0 512 0C229.23 0 0 229.23 0 512C0 794.77 229.23 1024 512 1024Z" fill="#728DBE"/>
<path d="M231.88 552.34V467.61H261.4V481.45C264.372 476.7 268.469 472.755 273.328 469.965C278.187 467.174 283.659 465.623 289.26 465.45C290.484 465.446 291.706 465.556 292.91 465.78V494.3C289.639 493.471 286.284 493.025 282.91 492.97C272.91 492.97 264.73 497.14 261.39 503.14V552.35L231.88 552.34ZM303.46 467.62H333V552.35H303.47L303.46 467.62ZM380.51 552.34V499.47C381.83 497.057 383.785 495.052 386.162 493.67C388.54 492.288 391.25 491.582 394 491.63C401.17 491.63 404.67 496.14 404.67 505.31V552.31H434.19V499.47C435.46 497.048 437.383 495.031 439.741 493.645C442.098 492.26 444.796 491.562 447.53 491.63C454.7 491.63 458.2 496.14 458.2 505.31V552.31H487.72V499.47C487.72 477.29 475.38 465.47 457.53 465.47C452.145 465.489 446.839 466.765 442.034 469.195C437.228 471.626 433.057 475.144 429.85 479.47C427.541 475.283 424.164 471.781 420.062 469.322C415.961 466.863 411.282 465.534 406.5 465.47C401.502 465.222 396.519 466.201 391.987 468.323C387.455 470.444 383.511 473.643 380.5 477.64V467.64H351V552.37L380.51 552.34ZM580.51 478.29C571.043 470.012 558.895 465.45 546.32 465.45C533.745 465.45 521.597 470.012 512.13 478.29C507.857 482.406 504.459 487.341 502.137 492.801C499.816 498.261 498.619 504.132 498.619 510.065C498.619 515.998 499.816 521.869 502.137 527.329C504.459 532.789 507.857 537.724 512.13 541.84C521.644 550.018 533.774 554.515 546.32 554.515C558.866 554.515 570.996 550.018 580.51 541.84C584.783 537.724 588.181 532.789 590.503 527.329C592.824 521.869 594.021 515.998 594.021 510.065C594.021 504.132 592.824 498.261 590.503 492.801C588.181 487.341 584.783 482.406 580.51 478.29ZM546.32 529.29C541.439 529.367 536.727 527.503 533.22 524.107C529.713 520.711 527.699 516.061 527.62 511.18V509.95C527.531 507.497 527.927 505.05 528.784 502.75C529.641 500.45 530.942 498.341 532.614 496.544C534.286 494.746 536.295 493.296 538.528 492.275C540.76 491.255 543.172 490.684 545.625 490.595C548.078 490.506 550.525 490.902 552.825 491.759C555.125 492.615 557.234 493.917 559.031 495.589C560.829 497.261 562.279 499.27 563.3 501.503C564.32 503.735 564.891 506.147 564.98 508.6V509.95C565.228 514.826 563.528 519.601 560.256 523.224C556.983 526.847 552.406 529.022 547.53 529.27H546.3M788.3 478.27C778.833 469.992 766.685 465.43 754.11 465.43C741.535 465.43 729.387 469.992 719.92 478.27C715.647 482.386 712.249 487.321 709.927 492.781C707.606 498.241 706.409 504.112 706.409 510.045C706.409 515.978 707.606 521.849 709.927 527.309C712.249 532.769 715.647 537.704 719.92 541.82C729.434 549.998 741.564 554.495 754.11 554.495C766.656 554.495 778.786 549.998 788.3 541.82C792.573 537.704 795.971 532.769 798.293 527.309C800.614 521.849 801.811 515.978 801.811 510.045C801.811 504.112 800.614 498.241 798.293 492.781C795.971 487.321 792.573 482.386 788.3 478.27ZM754.11 529.27C749.229 529.348 744.517 527.483 741.01 524.087C737.503 520.691 735.489 516.041 735.41 511.16V509.93C735.321 507.477 735.717 505.03 736.574 502.73C737.43 500.43 738.732 498.321 740.404 496.523C742.076 494.726 744.085 493.276 746.318 492.255C748.55 491.235 750.962 490.664 753.415 490.575C755.868 490.486 758.315 490.882 760.615 491.739C762.915 492.595 765.024 493.897 766.821 495.569C768.619 497.241 770.069 499.25 771.09 501.483C772.11 503.715 772.681 506.127 772.77 508.58V509.93C773.018 514.806 771.318 519.581 768.046 523.204C764.773 526.827 760.196 529.002 755.32 529.25H754.09M210.28 440.82C200.953 432.353 188.678 427.88 176.09 428.36H128V552.64H157.52V453L176.09 453.09C178.486 453.031 180.87 453.445 183.106 454.308C185.342 455.171 187.386 456.466 189.122 458.119C190.857 459.772 192.25 461.75 193.221 463.942C194.192 466.133 194.722 468.494 194.78 470.89V472.11C194.934 476.995 193.14 481.741 189.795 485.304C186.449 488.868 181.825 490.956 176.94 491.11H170.2V515.85H176.09C188.691 516.287 200.963 511.775 210.28 503.28C214.545 499.273 217.944 494.435 220.268 489.064C222.592 483.692 223.79 477.902 223.79 472.05C223.79 466.198 222.592 460.408 220.268 455.036C217.944 449.665 214.545 444.827 210.28 440.82ZM699.28 508.82C699.404 502.961 698.261 497.145 695.929 491.768C693.598 486.392 690.132 481.583 685.77 477.67C676.466 469.136 664.188 464.587 651.57 465H645.68V489.74H651.57C653.998 489.706 656.409 490.151 658.664 491.052C660.919 491.952 662.973 493.289 664.71 494.985C666.447 496.682 667.831 498.705 668.784 500.939C669.736 503.172 670.238 505.572 670.26 508V508.84C670.463 513.675 668.738 518.392 665.464 521.955C662.19 525.518 657.635 527.635 652.8 527.84H651.58L633.01 527.93V428.33H603.48V552.71H651.57C664.172 553.152 676.445 548.639 685.76 540.14C690.127 536.196 693.593 531.359 695.925 525.956C698.256 520.554 699.397 514.713 699.27 508.83M865.64 486.45L874.2 498.71L896 467.47H863.15L857.78 475.18L865.64 486.45ZM865.64 533.54L857.77 544.82L863.13 552.53H896L874.2 521.3L865.64 533.54ZM849.9 486.44L836.65 467.44H803.8L833.47 510L803.8 552.5H836.65L849.88 533.5L866.32 510L849.9 486.44ZM333 443.32C333 440.401 332.134 437.547 330.512 435.12C328.891 432.692 326.585 430.801 323.888 429.683C321.191 428.566 318.224 428.274 315.36 428.844C312.497 429.413 309.867 430.819 307.803 432.883C305.739 434.947 304.333 437.577 303.764 440.44C303.194 443.304 303.486 446.271 304.604 448.968C305.721 451.665 307.613 453.971 310.04 455.592C312.467 457.214 315.321 458.08 318.24 458.08C322.155 458.08 325.909 456.525 328.677 453.757C331.445 450.989 333 447.235 333 443.32Z" fill="white"/>
</g>
<defs>
<clipPath id="clip0_2_3207">
<rect width="1024" height="1024" fill="white"/>
</clipPath>
</defs>
</svg>
